src/static/logos/drone.svg

<?xml version="1.0" encoding="UTF-8" standalone="no"?>
<svg width="256px" height="218px" viewBox="0 0 256 218" version="1.1" xmlns="http://www.w3.org/2000/svg" xmlns:xlink="http://www.w3.org/1999/xlink" preserveAspectRatio="xMidYMid">
	<g fill="#252728">
		<path d="M128.224307,0.72249586 C32.0994301,0.72249586 0.394430682,84.5663333 0.394430682,115.221578 L78.3225537,115.221578 C78.3225537,115.221578 89.3644231,75.2760497 128.224307,75.2760497 C167.08419,75.2760497 178.130047,115.221578 178.130047,115.221578 L255.605569,115.221578 C255.605569,84.5623457 224.348186,0.72249586 128.224307,0.72249586"></path>
		<path d="M227.043854,135.175898 L178.130047,135.175898 C178.130047,135.175898 169.579477,175.122423 128.224307,175.122423 C86.8691361,175.122423 78.3225537,135.175898 78.3225537,135.175898 L30.2571247,135.175898 C30.2571247,145.426215 67.9845088,217.884246 128.699837,217.884246 C189.414168,217.884246 227.043854,158.280482 227.043854,135.175898"></path>
		<circle cx="128" cy="126.076531" r="32.7678394"></circle>
	</g>
</svg>

<svg width="256" height="218" xmlns="http://www.w3.org/2000/svg" preserveAspectRatio="xMidYMid"><g fill="#252728"><path d="M128.224.722C32.1.722.394 84.566.394 115.222h77.929s11.041-39.946 49.901-39.946 49.906 39.946 49.906 39.946h77.476c0-30.66-31.258-114.5-127.382-114.5m98.82 134.454H178.13s-8.55 39.946-49.906 39.946c-41.355 0-49.901-39.946-49.901-39.946H30.257c0 10.25 37.728 82.708 98.443 82.708 60.714 0 98.344-59.604 98.344-82.708"/><circle cx="128" cy="126.077" r="32.768"/></g></svg>
